TileServer und Tiles/svg/9/2_20.svg

<?xml version='1.0' encoding='UTF-8' standalone='no'?>
<svg xmlns="http://www.w3.org/2000/svg" width="497pt" viewBox="0 0 497 279" xmlns:xlink="http://www.w3.org/1999/xlink" height="279pt">
 <defs style="stroke:none;" overflow="visible">
  <path id="glyph0-7" d="M 3.34375 -5.453125 C 3.445312 -5.453125 3.554688 -5.445312 3.671875 -5.4375 C 3.785156 -5.4375 3.890625 -5.425781 3.984375 -5.40625 L 3.875 -4.59375 C 3.78125 -4.613281 3.679688 -4.628906 3.578125 -4.640625 C 3.484375 -4.648438 3.390625 -4.65625 3.296875 -4.65625 C 3.015625 -4.65625 2.753906 -4.578125 2.515625 -4.421875 C 2.273438 -4.273438 2.082031 -4.066406 1.9375 -3.796875 C 1.800781 -3.535156 1.734375 -3.222656 1.734375 -2.859375 L 1.734375 0 L 0.84375 0 L 0.84375 -5.359375 L 1.5625 -5.359375 L 1.671875 -4.375 L 1.703125 -4.375 C 1.878906 -4.664062 2.101562 -4.914062 2.375 -5.125 C 2.65625 -5.34375 2.976562 -5.453125 3.34375 -5.453125 Z M 3.34375 -5.453125 "/>
  <path id="glyph0-6" d="M 2.921875 -5.453125 C 3.378906 -5.453125 3.769531 -5.351562 4.09375 -5.15625 C 4.425781 -4.957031 4.679688 -4.675781 4.859375 -4.3125 C 5.035156 -3.945312 5.125 -3.523438 5.125 -3.046875 L 5.125 -2.515625 L 1.453125 -2.515625 C 1.472656 -1.898438 1.628906 -1.4375 1.921875 -1.125 C 2.222656 -0.8125 2.640625 -0.65625 3.171875 -0.65625 C 3.515625 -0.65625 3.816406 -0.6875 4.078125 -0.75 C 4.335938 -0.8125 4.609375 -0.898438 4.890625 -1.015625 L 4.890625 -0.25 C 4.617188 -0.125 4.347656 -0.0351562 4.078125 0.015625 C 3.816406 0.0664062 3.5 0.09375 3.125 0.09375 C 2.625 0.09375 2.175781 -0.00390625 1.78125 -0.203125 C 1.394531 -0.410156 1.09375 -0.71875 0.875 -1.125 C 0.65625 -1.539062 0.546875 -2.046875 0.546875 -2.640625 C 0.546875 -3.222656 0.644531 -3.722656 0.84375 -4.140625 C 1.039062 -4.566406 1.316406 -4.890625 1.671875 -5.109375 C 2.023438 -5.335938 2.441406 -5.453125 2.921875 -5.453125 Z M 2.90625 -4.734375 C 2.488281 -4.734375 2.15625 -4.597656 1.90625 -4.328125 C 1.664062 -4.066406 1.523438 -3.691406 1.484375 -3.203125 L 4.203125 -3.203125 C 4.203125 -3.660156 4.097656 -4.03125 3.890625 -4.3125 C 3.679688 -4.59375 3.351562 -4.734375 2.90625 -4.734375 Z M 2.90625 -4.734375 "/>
  <path id="glyph0-5" d="M 1.296875 -7.375 C 1.429688 -7.375 1.550781 -7.328125 1.65625 -7.234375 C 1.757812 -7.140625 1.8125 -7 1.8125 -6.8125 C 1.8125 -6.625 1.757812 -6.484375 1.65625 -6.390625 C 1.550781 -6.296875 1.429688 -6.25 1.296875 -6.25 C 1.148438 -6.25 1.023438 -6.296875 0.921875 -6.390625 C 0.828125 -6.484375 0.78125 -6.625 0.78125 -6.8125 C 0.78125 -7 0.828125 -7.140625 0.921875 -7.234375 C 1.023438 -7.328125 1.148438 -7.375 1.296875 -7.375 Z M 1.734375 -5.359375 L 1.734375 0 L 0.84375 0 L 0.84375 -5.359375 Z M 1.734375 -5.359375 "/>
  <path id="glyph0-4" d="M 6.734375 -5.453125 C 7.335938 -5.453125 7.789062 -5.296875 8.09375 -4.984375 C 8.394531 -4.679688 8.546875 -4.179688 8.546875 -3.484375 L 8.546875 0 L 7.671875 0 L 7.671875 -3.453125 C 7.671875 -4.296875 7.304688 -4.71875 6.578125 -4.71875 C 6.054688 -4.71875 5.679688 -4.566406 5.453125 -4.265625 C 5.234375 -3.960938 5.125 -3.523438 5.125 -2.953125 L 5.125 0 L 4.265625 0 L 4.265625 -3.453125 C 4.265625 -4.296875 3.894531 -4.71875 3.15625 -4.71875 C 2.613281 -4.71875 2.238281 -4.550781 2.03125 -4.21875 C 1.832031 -3.882812 1.734375 -3.40625 1.734375 -2.78125 L 1.734375 0 L 0.84375 0 L 0.84375 -5.359375 L 1.5625 -5.359375 L 1.6875 -4.625 L 1.734375 -4.625 C 1.898438 -4.90625 2.125 -5.113281 2.40625 -5.25 C 2.695312 -5.382812 3 -5.453125 3.3125 -5.453125 C 4.15625 -5.453125 4.703125 -5.15625 4.953125 -4.5625 L 5.015625 -4.5625 C 5.191406 -4.863281 5.429688 -5.085938 5.734375 -5.234375 C 6.046875 -5.378906 6.378906 -5.453125 6.734375 -5.453125 Z M 6.734375 -5.453125 "/>
  <path id="glyph0-3" d="M 1.734375 0 L 0.84375 0 L 0.84375 -7.59375 L 1.734375 -7.59375 Z M 1.734375 0 "/>
  <path id="glyph0-2" d="M 2.875 -5.453125 C 3.53125 -5.453125 4.015625 -5.304688 4.328125 -5.015625 C 4.640625 -4.734375 4.796875 -4.28125 4.796875 -3.65625 L 4.796875 0 L 4.15625 0 L 3.984375 -0.765625 L 3.953125 -0.765625 C 3.710938 -0.460938 3.460938 -0.242188 3.203125 -0.109375 C 2.953125 0.0234375 2.601562 0.09375 2.15625 0.09375 C 1.664062 0.09375 1.257812 -0.03125 0.9375 -0.28125 C 0.613281 -0.539062 0.453125 -0.941406 0.453125 -1.484375 C 0.453125 -2.023438 0.660156 -2.4375 1.078125 -2.71875 C 1.503906 -3.007812 2.15625 -3.171875 3.03125 -3.203125 L 3.9375 -3.234375 L 3.9375 -3.546875 C 3.9375 -3.992188 3.835938 -4.300781 3.640625 -4.46875 C 3.453125 -4.644531 3.179688 -4.734375 2.828125 -4.734375 C 2.546875 -4.734375 2.28125 -4.691406 2.03125 -4.609375 C 1.78125 -4.523438 1.539062 -4.429688 1.3125 -4.328125 L 1.046875 -4.984375 C 1.285156 -5.117188 1.5625 -5.226562 1.875 -5.3125 C 2.195312 -5.40625 2.53125 -5.453125 2.875 -5.453125 Z M 3.9375 -2.625 L 3.140625 -2.59375 C 2.472656 -2.5625 2.007812 -2.453125 1.75 -2.265625 C 1.5 -2.078125 1.375 -1.816406 1.375 -1.484375 C 1.375 -1.179688 1.460938 -0.957031 1.640625 -0.8125 C 1.828125 -0.675781 2.0625 -0.609375 2.34375 -0.609375 C 2.800781 -0.609375 3.179688 -0.734375 3.484375 -0.984375 C 3.785156 -1.234375 3.9375 -1.617188 3.9375 -2.140625 Z M 3.9375 -2.625 "/>
  <path id="glyph0-1" d="M 6 -7.140625 L 3.453125 0 L 2.546875 0 L 0 -7.140625 L 0.9375 -7.140625 L 2.546875 -2.5625 C 2.648438 -2.269531 2.738281 -1.992188 2.8125 -1.734375 C 2.894531 -1.472656 2.957031 -1.226562 3 -1 C 3.039062 -1.226562 3.097656 -1.472656 3.171875 -1.734375 C 3.253906 -1.992188 3.347656 -2.273438 3.453125 -2.578125 L 5.046875 -7.140625 Z M 6 -7.140625 "/>
  <path id="glyph0-0" d="M 0.9375 0 L 0.9375 -7.140625 L 5.046875 -7.140625 L 5.046875 0 Z M 1.453125 -0.515625 L 4.546875 -0.515625 L 4.546875 -6.625 L 1.453125 -6.625 Z M 1.453125 -0.515625 "/>
 </defs>
 <image width="497" xlink:href="svg/9/2_20.jpg" height="279"/>
 <g>
  <path d="M 331.546875 197.09375 L 329 204.234375 L 328.09375 204.234375 L 325.546875 197.09375 L 326.484375 197.09375 L 328.09375 201.671875 C 328.195312 201.964844 328.285156 202.242188 328.359375 202.5 C 328.441406 202.761719 328.503906 203.007812 328.546875 203.234375 C 328.585938 203.007812 328.644531 202.761719 328.71875 202.5 C 328.800781 202.242188 328.894531 201.960938 329 201.65625 L 330.59375 197.09375 Z M 331.546875 197.09375 " transform=" rotate(  340 346.19 201.233) " style="fill:none;stroke-width:3;stroke-linecap:butt;stroke-linejoin:round;stroke:rgb(100%,100%,100%);stroke-opacity:0.6;stroke-miterlimit:10;"/>
  <path d="M 334.21875 198.78125 C 334.875 198.78125 335.359375 198.929688 335.671875 199.21875 C 335.984375 199.5 336.140625 199.953125 336.140625 200.578125 L 336.140625 204.234375 L 335.5 204.234375 L 335.328125 203.46875 L 335.296875 203.46875 C 335.054688 203.773438 334.804688 203.992188 334.546875 204.125 C 334.296875 204.257812 333.945312 204.328125 333.5 204.328125 C 333.007812 204.328125 332.601562 204.203125 332.28125 203.953125 C 331.957031 203.695312 331.796875 203.292969 331.796875 202.75 C 331.796875 202.210938 332.003906 201.796875 332.421875 201.515625 C 332.847656 201.226562 333.5 201.0625 334.375 201.03125 L 335.28125 201 L 335.28125 200.6875 C 335.28125 200.242188 335.179688 199.933594 334.984375 199.765625 C 334.796875 199.589844 334.523438 199.5 334.171875 199.5 C 333.890625 199.5 333.625 199.542969 333.375 199.625 C 333.125 199.710938 332.882812 199.804688 332.65625 199.90625 L 332.390625 199.25 C 332.628906 199.117188 332.90625 199.007812 333.21875 198.921875 C 333.539062 198.828125 333.875 198.78125 334.21875 198.78125 Z M 335.28125 201.609375 L 334.484375 201.640625 C 333.816406 201.671875 333.351562 201.78125 333.09375 201.96875 C 332.84375 202.15625 332.71875 202.417969 332.71875 202.75 C 332.71875 203.054688 332.804688 203.277344 332.984375 203.421875 C 333.171875 203.558594 333.40625 203.625 333.6875 203.625 C 334.144531 203.625 334.523438 203.5 334.828125 203.25 C 335.128906 203 335.28125 202.617188 335.28125 202.09375 Z M 335.28125 201.609375 " transform=" rotate(  340 346.19 201.233) " style="fill:none;stroke-width:3;stroke-linecap:butt;stroke-linejoin:round;stroke:rgb(100%,100%,100%);stroke-opacity:0.6;stroke-miterlimit:10;"/>
  <path d="M 338.691406 204.234375 L 337.800781 204.234375 L 337.800781 196.640625 L 338.691406 196.640625 Z M 338.691406 204.234375 " transform=" rotate(  340 346.19 201.233) " style="fill:none;stroke-width:3;stroke-linecap:butt;stroke-linejoin:round;stroke:rgb(100%,100%,100%);stroke-opacity:0.6;stroke-miterlimit:10;"/>
  <path d="M 346.269531 198.78125 C 346.871094 198.78125 347.324219 198.9375 347.628906 199.25 C 347.929688 199.554688 348.082031 200.054688 348.082031 200.75 L 348.082031 204.234375 L 347.207031 204.234375 L 347.207031 200.78125 C 347.207031 199.9375 346.839844 199.515625 346.113281 199.515625 C 345.589844 199.515625 345.214844 199.667969 344.988281 199.96875 C 344.769531 200.273438 344.660156 200.710938 344.660156 201.28125 L 344.660156 204.234375 L 343.800781 204.234375 L 343.800781 200.78125 C 343.800781 199.9375 343.429688 199.515625 342.691406 199.515625 C 342.148438 199.515625 341.773438 199.683594 341.566406 200.015625 C 341.367188 200.351562 341.269531 200.828125 341.269531 201.453125 L 341.269531 204.234375 L 340.378906 204.234375 L 340.378906 198.875 L 341.097656 198.875 L 341.222656 199.609375 L 341.269531 199.609375 C 341.433594 199.328125 341.660156 199.121094 341.941406 198.984375 C 342.230469 198.851562 342.535156 198.78125 342.847656 198.78125 C 343.691406 198.78125 344.238281 199.078125 344.488281 199.671875 L 344.550781 199.671875 C 344.726562 199.371094 344.964844 199.148438 345.269531 199 C 345.582031 198.855469 345.914062 198.78125 346.269531 198.78125 Z M 346.269531 198.78125 " transform=" rotate(  340 346.19 201.233) " style="fill:none;stroke-width:3;stroke-linecap:butt;stroke-linejoin:round;stroke:rgb(100%,100%,100%);stroke-opacity:0.6;stroke-miterlimit:10;"/>
  <path d="M 350.183594 196.859375 C 350.316406 196.859375 350.4375 196.90625 350.542969 197 C 350.644531 197.09375 350.699219 197.234375 350.699219 197.421875 C 350.699219 197.609375 350.644531 197.75 350.542969 197.84375 C 350.4375 197.9375 350.316406 197.984375 350.183594 197.984375 C 350.035156 197.984375 349.910156 197.9375 349.808594 197.84375 C 349.714844 197.75 349.667969 197.609375 349.667969 197.421875 C 349.667969 197.234375 349.714844 197.09375 349.808594 197 C 349.910156 196.90625 350.035156 196.859375 350.183594 196.859375 Z M 350.621094 198.875 L 350.621094 204.234375 L 349.730469 204.234375 L 349.730469 198.875 Z M 350.621094 198.875 " transform=" rotate(  340 346.19 201.233) " style="fill:none;stroke-width:3;stroke-linecap:butt;stroke-linejoin:round;stroke:rgb(100%,100%,100%);stroke-opacity:0.6;stroke-miterlimit:10;"/>
  <path d="M 354.386719 198.78125 C 354.84375 198.78125 355.234375 198.882812 355.558594 199.078125 C 355.890625 199.277344 356.144531 199.558594 356.324219 199.921875 C 356.5 200.289062 356.589844 200.710938 356.589844 201.1875 L 356.589844 201.71875 L 352.917969 201.71875 C 352.9375 202.335938 353.09375 202.796875 353.386719 203.109375 C 353.6875 203.421875 354.105469 203.578125 354.636719 203.578125 C 354.980469 203.578125 355.28125 203.546875 355.542969 203.484375 C 355.800781 203.421875 356.074219 203.335938 356.355469 203.21875 L 356.355469 203.984375 C 356.082031 204.109375 355.8125 204.199219 355.542969 204.25 C 355.28125 204.300781 354.964844 204.328125 354.589844 204.328125 C 354.089844 204.328125 353.640625 204.230469 353.246094 204.03125 C 352.859375 203.824219 352.558594 203.515625 352.339844 203.109375 C 352.121094 202.695312 352.011719 202.1875 352.011719 201.59375 C 352.011719 201.011719 352.109375 200.511719 352.308594 200.09375 C 352.503906 199.667969 352.78125 199.34375 353.136719 199.125 C 353.488281 198.898438 353.90625 198.78125 354.386719 198.78125 Z M 354.371094 199.5 C 353.953125 199.5 353.621094 199.636719 353.371094 199.90625 C 353.128906 200.167969 352.988281 200.542969 352.949219 201.03125 L 355.667969 201.03125 C 355.667969 200.574219 355.5625 200.203125 355.355469 199.921875 C 355.144531 199.640625 354.816406 199.5 354.371094 199.5 Z M 354.371094 199.5 " transform=" rotate(  340 346.19 201.233) " style="fill:none;stroke-width:3;stroke-linecap:butt;stroke-linejoin:round;stroke:rgb(100%,100%,100%);stroke-opacity:0.6;stroke-miterlimit:10;"/>
  <path d="M 360.449219 198.78125 C 360.550781 198.78125 360.660156 198.789062 360.777344 198.796875 C 360.890625 198.796875 360.996094 198.808594 361.089844 198.828125 L 360.980469 199.640625 C 360.886719 199.621094 360.785156 199.605469 360.683594 199.59375 C 360.589844 199.585938 360.496094 199.578125 360.402344 199.578125 C 360.121094 199.578125 359.859375 199.65625 359.621094 199.8125 C 359.378906 199.960938 359.1875 200.167969 359.042969 200.4375 C 358.90625 200.699219 358.839844 201.011719 358.839844 201.375 L 358.839844 204.234375 L 357.949219 204.234375 L 357.949219 198.875 L 358.667969 198.875 L 358.777344 199.859375 L 358.808594 199.859375 C 358.984375 199.570312 359.207031 199.320312 359.480469 199.109375 C 359.761719 198.890625 360.082031 198.78125 360.449219 198.78125 Z M 360.449219 198.78125 " transform=" rotate(  340 346.19 201.233) " style="fill:none;stroke-width:3;stroke-linecap:butt;stroke-linejoin:round;stroke:rgb(100%,100%,100%);stroke-opacity:0.6;stroke-miterlimit:10;"/>
  <path d="M 363.910156 198.78125 C 364.566406 198.78125 365.050781 198.929688 365.363281 199.21875 C 365.675781 199.5 365.832031 199.953125 365.832031 200.578125 L 365.832031 204.234375 L 365.191406 204.234375 L 365.019531 203.46875 L 364.988281 203.46875 C 364.746094 203.773438 364.496094 203.992188 364.238281 204.125 C 363.988281 204.257812 363.636719 204.328125 363.191406 204.328125 C 362.699219 204.328125 362.292969 204.203125 361.972656 203.953125 C 361.648438 203.695312 361.488281 203.292969 361.488281 202.75 C 361.488281 202.210938 361.695312 201.796875 362.113281 201.515625 C 362.539062 201.226562 363.191406 201.0625 364.066406 201.03125 L 364.972656 201 L 364.972656 200.6875 C 364.972656 200.242188 364.871094 199.933594 364.675781 199.765625 C 364.488281 199.589844 364.214844 199.5 363.863281 199.5 C 363.582031 199.5 363.316406 199.542969 363.066406 199.625 C 362.816406 199.710938 362.574219 199.804688 362.347656 199.90625 L 362.082031 199.25 C 362.320312 199.117188 362.597656 199.007812 362.910156 198.921875 C 363.230469 198.828125 363.566406 198.78125 363.910156 198.78125 Z M 364.972656 201.609375 L 364.175781 201.640625 C 363.507812 201.671875 363.042969 201.78125 362.785156 201.96875 C 362.535156 202.15625 362.410156 202.417969 362.410156 202.75 C 362.410156 203.054688 362.496094 203.277344 362.675781 203.421875 C 362.863281 203.558594 363.097656 203.625 363.378906 203.625 C 363.835938 203.625 364.214844 203.5 364.519531 203.25 C 364.820312 203 364.972656 202.617188 364.972656 202.09375 Z M 364.972656 201.609375 " transform=" rotate(  340 346.19 201.233) " style="fill:none;stroke-width:3;stroke-linecap:butt;stroke-linejoin:round;stroke:rgb(100%,100%,100%);stroke-opacity:0.6;stroke-miterlimit:10;"/>
  <g transform=" rotate(  340 346.19 201.233) " style="fill:rgb(13.333333%,13.333333%,13.333333%);fill-opacity:1;">
   <use xlink:href="#glyph0-1" y="204.232819" x="325.545429"/>
   <use xlink:href="#glyph0-2" y="204.232819" x="331.345429"/>
   <use xlink:href="#glyph0-3" y="204.232819" x="336.955429"/>
   <use xlink:href="#glyph0-4" y="204.232819" x="339.535429"/>
   <use xlink:href="#glyph0-5" y="204.232819" x="348.885429"/>
   <use xlink:href="#glyph0-6" y="204.232819" x="351.465429"/>
   <use xlink:href="#glyph0-7" y="204.232819" x="357.105429"/>
   <use xlink:href="#glyph0-2" y="204.232819" x="361.035429"/>
  </g>
 </g>
</svg>

<svg xmlns="http://www.w3.org/2000/svg" xmlns:xlink="http://www.w3.org/1999/xlink" viewBox="0 0 497 279"> <defs overflow="visible" style="stroke:none">  <path id="g" d="M3.3-5.5H4l-.1 1.1-.3-.3h-.3c-.3 0-.5 0-.8.2l-.5.7-.3 1V0H.8v-5.4h.8v1h.2l.6-.6c.3-.3.6-.5 1-.5Zm0 0"/>  <path id="f" d="M3-5.5c.3 0 .7.1 1 .3a2 2 0 0 1 1 .9v1.8H1.5c0 .5.1 1 .4 1.4.3.3.7.4 1.3.4H4l.9-.3v.8L4 0a5 5 0 0 1-1 0 3 3 0 0 1-1.2-.1 2.2 2.2 0 0 1-1-1.1c0-.2-.2-.8-.2-1.3-.1-.7 0-1.2.2-1.6.2-.5.5-.9.9-1 .3-.2.7-.4 1.2-.4Zm0 .8c-.6 0-.9.1-1 .4-.4.2-.6.6-.6 1.1h2.8c0-.5-.1-.8-.3-1.1-.2-.3-.5-.4-1-.4Zm0 0"/>  <path id="e" d="M1.3-7.4c.1 0 .3 0 .4.2l.1.4-.1.4-.4.2-.4-.3-.1-.3.1-.4.4-.2Zm.4 2V0H.8v-5.4Zm0 0"/>  <path id="d" d="M6.7-5.5c.6 0 1 .2 1.4.5.3.3.4.8.4 1.5V0h-.8v-3.5c0-.8-.4-1.2-1.1-1.2-.6 0-1 .1-1.1.4C5.2-4 5-3.5 5-3v3h-.7v-3.5c0-.8-.4-1.2-1.1-1.2-.6 0-1 .1-1.2.5-.2.2-.3.8-.3 1.4V0H.8v-5.4h.8v.8h.2l.6-.7 1-.2c.7 0 1.2.3 1.6 1 .2-.5.4-.7.7-.8.3-.1.7-.2 1-.2Zm0 0"/>  <path id="c" d="M1.7 0H.8v-7.6h1Zm0 0"/>  <path id="b" d="M2.9-5.5c.6 0 1.1.2 1.4.5.3.3.5.7.5 1.3V0h-.6L4-.8c-.3.3-.5.6-.8.8h-1c-.5 0-1 0-1.3-.3C.6-.5.5-.9.5-1.5c0-.5.2-1 .5-1.2.5-.3 1-.5 2-.5h.8v-.3c.2-.5.2-.8-.2-1l-.8-.2H2l-.7.5L1-5l1-.3.9-.2Zm1 2.9h-.8c-.6 0-1 .1-1.4.3-.1.3-.3.5-.3.8 0 .3 0 .5.2.7l.7.2c.5 0 .9-.1 1.2-.4.3-.2.4-.6.4-1Zm.1 0"/>  <path id="a" d="M6-7.1 3.5 0h-1L0-7.1h1l1.4 4.5A16.5 16.5 0 0 1 3-1l.2-.7.3-.9L5-7Zm0 0"/>  <path d="M1 0v-7.1h4V0Zm.4-.5h3.1v-6.1h-3Zm.1 0"/> </defs> <image xlink:href="svg/9/2_20.jpg" width="497" height="279"/> <path d="m331.5 197-2.5 7.3h-1l-2.4-7.2h.9l1.5 4.6a16.5 16.5 0 0 1 .5 1.5l.2-.7.3-.8 1.6-4.7Zm2.7 1.8c.8 0 1.2.1 1.5.4.3.3.3.8.3 1.4v3.6h-.5l-.2-.7c-.2.3-.5.5-.8.5-.2.3-.5.3-1 .3s-.9-.1-1.2-.3c-.3-.3-.5-.7-.5-1.3 0-.4.2-.9.6-1.1.4-.4 1.1-.5 2-.6h.9v-.3c0-.5-.1-.8-.3-1l-.8-.1h-.8l-.7.4-.3-.8.8-.2 1-.2Zm1 2.8h-.6c-.8 0-1.2.2-1.6.4-.2.2-.3.4-.3.8 0 .2.1.5.3.5.2.3.4.3.7.3.3 0 .8-.1 1.1-.3.3-.3.5-.7.5-1.3Zm3.5 2.6h-.9v-7.6h.9Zm7.6-5.4c.6 0 1 .1 1.3.4.4.5.5 1 .5 1.6v3.4h-.9v-3.4c0-.9-.4-1.3-1-1.3s-1.1.2-1.2.5c-.2.3-.3.7-.3 1.3v3h-.9v-3.6c0-.8-.4-1.2-1.1-1.2-.7 0-1 .2-1.1.5-.2.4-.3.8-.3 1.5v2.7h-1V199h.9v.6l.8-.6 1-.2c.6 0 1.1.2 1.4.9.4-.3.6-.7 1-.7l.9-.2Zm3.9-1.9.3.1.2.4c0 .2 0 .3-.2.4l-.3.2c-.2 0-.3 0-.4-.2l-.1-.4.1-.4.4-.1Zm.4 2v5.3h-.9V199Zm3.8-.1c.4 0 .8 0 1.2.2a2 2 0 0 1 .7.9c.2.4.3.8.3 1.3v.5h-3.7c.1.6.2 1.1.5 1.4.3.3.6.5 1.2.5l1-.1.7-.3v.8l-.8.3a5 5 0 0 1-1 0 3 3 0 0 1-1.2-.3 2.2 2.2 0 0 1-1-.9c-.2-.4-.3-1-.3-1.5 0-.6.1-1 .3-1.6.2-.3.5-.7.8-1 .4 0 .9-.2 1.3-.2Zm0 .7c-.4 0-.8.1-1 .4-.4.3-.4.6-.5 1.1h2.8c0-.4-.1-.8-.3-1-.4-.5-.6-.6-1-.6Zm6-.7h.7l-.1.8h-.6c-.3 0-.5 0-.8.2l-.6.6-.2 1v2.8h-.8V199h.7v.9h.2l.6-.9c.3 0 .5-.2 1-.2Zm3.6 0c.5 0 1 .1 1.3.4.4.3.5.8.5 1.4v3.6h-.6l-.2-.7c-.3.3-.5.5-.8.5-.2.3-.6.3-1 .3-.5 0-1-.1-1.2-.3-.4-.3-.5-.7-.5-1.3 0-.4.2-.9.5-1.1.5-.4 1.1-.5 2.1-.6h.9v-.3c0-.5-.1-.8-.3-1l-.8-.1h-.9l-.7.4-.2-.8.8-.2 1.1-.2Zm1 2.8h-.8c-.7 0-1.2.2-1.4.4-.3.2-.4.4-.4.8 0 .2.1.5.3.5.2.3.3.3.7.3.4 0 .8-.1 1.1-.3.3-.3.5-.7.5-1.3Zm0 0" style="fill:none;stroke-width:3;stroke-linecap:butt;stroke-linejoin:round;stroke:#fff;stroke-opacity:.6;stroke-miterlimit:10" transform=" rotate(  340 346.19 201.233) "/> <g style="fill:#222;fill-opacity:1" transform=" rotate(  340 346.19 201.233) ">  <use xlink:href="#a" x="325.5" y="204.2"/>  <use xlink:href="#b" x="331.3" y="204.2"/>  <use xlink:href="#c" x="337" y="204.2"/>  <use xlink:href="#d" x="339.5" y="204.2"/>  <use xlink:href="#e" x="348.9" y="204.2"/>  <use xlink:href="#f" x="351.5" y="204.2"/>  <use xlink:href="#g" x="357.1" y="204.2"/>  <use xlink:href="#b" x="361" y="204.2"/> </g></svg>
